X: 18
T: Father Kelly's
T:The Rossmore Jetty
R:reel
C:Father P.J. Kelly
M:4/4
K:G
GA|"G"B2GB "C"AGEG|"G"DGGF GABd|"C"cBAB cBAG|"Am"EAAG "D"FDGA|
"G"B2GB "C"AGEG|"G"DGGF GABc|~d2Bd gdBd|"D7"cAFA "G"G2:|
|:Bc|"G"~d2Bd gdBd|~d2Bd gdBd|"C"~e2ce "D"agfe|defg agfe|
"G"~d2Bd gdBd|"(Em)"~d2Bd gdBd|"C"cBAc "G"BAGB|"D"AGEF "G"G2:|


